X: 38158
T: Sporting Paddy
R: reel
M: 4/4
K: Gmajor
EAAB GABG|EAAB G2ED|EAA2 GABd|efge dBAG|
EAAB GABG|EAAB G2ED|EAA2 GABd|efge d2ef||
ge ~e2 ge ~e2|ge eg a2ba|ge ~e2 gedg|eage d2ef|
ge ~e2 gede|ge eg a2 ga|bgab gedg|efge dBAG||

